X: 11579
T: Edward The Seventh
R: jig
M: 6/8
K: Gmajor
|:D|~G3 GBd|gfe def|gdB G2A|BGE EDE|
~G3 GBd|gfe def|gdB AFA|~G3 G2:|
|:B|ded dBd|gfe def|gdB G2A|BGE EDE|
~G3 GBd|gfe def|gdB AFA|~G3 G2:|

